src/client/web-contents/img/common/badge/badge_family_07.svg

<svg height="32" viewBox="0 0 92 32" width="92" xmlns="http://www.w3.org/2000/svg"><g fill="none" fill-rule="evenodd"><rect fill="#119ed7" height="32" rx="4" width="92"/><path d="m22.24 20.98c0 1.96-2.26 3.26-6.18 3.26-3.94 0-6.18-1.3-6.18-3.26 0-1.94 2.24-3.26 6.16-3.26 3.94 0 6.2 1.32 6.2 3.26zm1.06-8.76-.9 1.62c-2.66-.32-5.38-1.82-6.34-3.52-.82 1.76-3.38 3.22-6.32 3.54l-.9-1.62c2.8-.16 5.48-1.42 6.06-3.4h-5.28v-1.66h12.9v1.66h-5.24c.64 1.98 3.62 3.24 6.02 3.38zm.8 2.76v1.64h-16.1v-1.64zm-3.98 6c0-1-1.56-1.6-4.08-1.6-2.5 0-4.06.6-4.06 1.6 0 1.04 1.56 1.6 4.06 1.6 2.52 0 4.08-.56 4.08-1.6zm8.26 2.98c-1.92-1.84-3.62-4.7-3.62-8.32v-.34c0-3.62 1.7-6.44 3.62-8.3h1.74c-1.84 2.02-3.34 4.92-3.34 8.12v.54c0 3.12 1.5 6.26 3.34 8.3zm17.12-8.78-1.06 1.62c-2.6-.66-5.5-2.5-6.46-4.7-.86 2.26-3.88 4.08-6.52 4.7l-1-1.68c2.82-.4 6.34-2.6 6.44-5.58h-5.54v-1.64h13.22v1.64h-5.52c.12 2.96 3.82 5.2 6.44 5.64zm.52 6.86h-16.1v-1.64h7v-4.1h2.04v4.1h7.06zm14.3-7.5h-12.1v-7.38h2.02v2.14h8.04v-2.18h2.04zm-5.06 9.78h-2.04v-6h-7v-1.66h16.1v1.66h-7.06zm3.02-11.44v-1.96h-8.04v1.96zm20.34 9.16h-16.1v-1.64h7v-4.1h-5v-8.42h12.12v8.42h-5.08v4.1h7.06zm-4.02-7.36v-5.16h-8.04v5.16zm3.82 9.28c1.84-2.02 3.34-4.94 3.34-8.14v-.54c0-3.1-1.5-6.24-3.34-8.28h1.74c1.94 1.86 3.62 4.7 3.62 8.3v.34c0 3.64-1.68 6.48-3.62 8.32z" fill="#fff"/></g></svg>

<?xml version="1.0" encoding="UTF-8" standalone="no"?>
<svg width="92px" height="32px" viewBox="0 0 92 32" version="1.1" xmlns="http://www.w3.org/2000/svg" xmlns:xlink="http://www.w3.org/1999/xlink">
    <!-- Generator: Sketch 50.2 (55047) - http://www.bohemiancoding.com/sketch -->
    <title>graphic_badge_family_07</title>
    <desc>Created with Sketch.</desc>
    <defs></defs>
    <g id="Icon_Badge_Graphic" stroke="none" stroke-width="1" fill="none" fill-rule="evenodd">
        <g id="##Element/Badge/Family07">
            <rect id="Rectangle-2" fill="#119ED7" x="0" y="0" width="92" height="32" rx="4"></rect>
            <path d="M22.24,20.98 C22.24,22.94 19.98,24.24 16.06,24.24 C12.12,24.24 9.88,22.94 9.88,20.98 C9.88,19.04 12.12,17.72 16.04,17.72 C19.98,17.72 22.24,19.04 22.24,20.98 Z M23.3,12.22 L22.4,13.84 C19.74,13.52 17.02,12.02 16.06,10.32 C15.24,12.08 12.68,13.54 9.74,13.86 L8.84,12.24 C11.64,12.08 14.32,10.82 14.9,8.84 L9.62,8.84 L9.62,7.18 L22.52,7.18 L22.52,8.84 L17.28,8.84 C17.92,10.82 20.9,12.08 23.3,12.22 Z M24.1,14.98 L24.1,16.62 L8,16.62 L8,14.98 L24.1,14.98 Z M20.12,20.98 C20.12,19.98 18.56,19.38 16.04,19.38 C13.54,19.38 11.98,19.98 11.98,20.98 C11.98,22.02 13.54,22.58 16.04,22.58 C18.56,22.58 20.12,22.02 20.12,20.98 Z M28.38,23.96 C26.46,22.12 24.76,19.26 24.76,15.64 L24.76,15.3 C24.76,11.68 26.46,8.86 28.38,7 L30.12,7 C28.28,9.02 26.78,11.92 26.78,15.12 L26.78,15.66 C26.78,18.78 28.28,21.92 30.12,23.96 L28.38,23.96 Z M45.5,15.18 L44.44,16.8 C41.84,16.14 38.94,14.3 37.98,12.1 C37.12,14.36 34.1,16.18 31.46,16.8 L30.46,15.12 C33.28,14.72 36.8,12.52 36.9,9.54 L31.36,9.54 L31.36,7.9 L44.58,7.9 L44.58,9.54 L39.06,9.54 C39.18,12.5 42.88,14.74 45.5,15.18 Z M46.02,22.04 L29.92,22.04 L29.92,20.4 L36.92,20.4 L36.92,16.3 L38.96,16.3 L38.96,20.4 L46.02,20.4 L46.02,22.04 Z M60.32,14.54 L48.22,14.54 L48.22,7.16 L50.24,7.16 L50.24,9.3 L58.28,9.3 L58.28,7.12 L60.32,7.12 L60.32,14.54 Z M55.26,24.32 L53.22,24.32 L53.22,18.32 L46.22,18.32 L46.22,16.66 L62.32,16.66 L62.32,18.32 L55.26,18.32 L55.26,24.32 Z M58.28,12.88 L58.28,10.92 L50.24,10.92 L50.24,12.88 L58.28,12.88 Z M78.62,22.04 L62.52,22.04 L62.52,20.4 L69.52,20.4 L69.52,16.3 L64.52,16.3 L64.52,7.88 L76.64,7.88 L76.64,16.3 L71.56,16.3 L71.56,20.4 L78.62,20.4 L78.62,22.04 Z M74.6,14.68 L74.6,9.52 L66.56,9.52 L66.56,14.68 L74.6,14.68 Z M78.42,23.96 C80.26,21.94 81.76,19.02 81.76,15.82 L81.76,15.28 C81.76,12.18 80.26,9.04 78.42,7 L80.16,7 C82.1,8.86 83.78,11.7 83.78,15.3 L83.78,15.64 C83.78,19.28 82.1,22.12 80.16,23.96 L78.42,23.96 Z" id="증(조부모)" fill="#FFFFFF"></path>
        </g>
    </g>
</svg>
